icons/view_p.svg

<?xml version="1.0" encoding="UTF-8"?>
<svg   viewBox="0 0 24 24" version="1.1" xmlns="http://www.w3.org/2000/svg" xmlns:xlink="http://www.w3.org/1999/xlink">
    <g id="🔍-Product-Icons" stroke="none" stroke-width="1" fill="none" fill-rule="evenodd">
        <g id="ic_fluent_document_search_24_regular" fill="#80aae2" fill-rule="nonzero">
            <path d="M11.4087946,10.9461386 C13.1311812,12.6685252 13.3113697,15.3491109 11.94936,17.2719826 L11.8080184,17.4616805 L16.0253699,21.6800252 L16.1002367,21.7667483 C16.3248369,22.0694513 16.2998813,22.4990168 16.0253699,22.7735281 C15.7508586,23.0480395 15.3212931,23.0729951 15.0185901,22.8483949 L14.931867,22.7735281 L10.6754475,18.5171346 C8.75993647,19.8086092 6.13747729,19.6069683 4.44272106,17.9122121 C2.51909298,15.988584 2.51909298,12.8697666 4.44272106,10.9461386 C6.36634915,9.02251048 9.48516649,9.02251048 11.4087946,10.9461386 Z M13.1289096,2 C13.7254427,2 14.2975605,2.23689125 14.7194834,2.6585934 L17.531355,5.46899352 L20.3390003,8.28086677 C20.7602248,8.70272584 20.996813,9.2745088 20.996813,9.8706591 L20.996813,19.75 C20.996813,20.9926407 19.9894537,22 18.746813,22 L17.2375183,22.000582 C17.2000564,21.7076293 17.0891738,21.4213644 16.9033168,21.1708772 L16.7823246,21.0265578 L16.2555614,20.499 L18.746813,20.5 C19.1610266,20.5 19.496813,20.1642136 19.496813,19.75 L19.496,10.003 L15.25,10.0038905 C14.059136,10.0038905 13.0843551,9.07872894 13.0051908,7.90793935 L13,7.75389054 L13,3.5 L7.25,3.5 C6.83578644,3.5 6.5,3.83578644 6.5,4.25 L6.49966809,8.67117089 C5.98079157,8.79427721 5.47529352,8.98818008 4.9985614,9.2528795 L5,4.25 C5,3.00735931 6.00735931,2 7.25,2 L13.1289096,2 Z M5.53622402,12.0396415 C4.21652094,13.3593446 4.21652094,15.499006 5.53622402,16.8187091 C6.85592709,18.1384122 8.99558854,18.1384122 10.3152916,16.8187091 C11.6349947,15.499006 11.6349947,13.3593446 10.3152916,12.0396415 C8.99558854,10.7199384 6.85592709,10.7199384 5.53622402,12.0396415 Z M14.5,4.56 L14.5,7.75389054 C14.5,8.1335863 14.7821539,8.4473815 15.1482294,8.49704392 L15.25,8.50389054 L18.441,8.503 L14.5,4.56 Z" id="🎨Color"></path>
        </g>
    </g>
</svg>

<svg width="24" height="24" fill="none" viewBox="0 0 24 24" xmlns="http://www.w3.org/2000/svg"><path d="M11.409 10.946a4.927 4.927 0 0 1 .54 6.326l-.141.19 4.217 4.218.075.087a.773.773 0 0 1-1.081 1.081l-.087-.075-4.257-4.256a4.927 4.927 0 0 1-6.232-7.57 4.926 4.926 0 0 1 6.966 0ZM13.129 2a2.25 2.25 0 0 1 1.59.659l2.812 2.81 2.808 2.812c.421.422.658.994.658 1.59v9.879a2.25 2.25 0 0 1-2.25 2.25h-1.51a1.765 1.765 0 0 0-.334-.83l-.12-.143-.527-.528 2.49.001a.75.75 0 0 0 .75-.75v-9.747H15.25a2.25 2.25 0 0 1-2.245-2.095L13 7.754V3.5H7.25a.75.75 0 0 0-.75.75v4.421a5.894 5.894 0 0 0-1.501.582L5 4.25A2.25 2.25 0 0 1 7.25 2h5.879ZM5.536 12.04a3.38 3.38 0 1 0 4.78 4.779 3.38 3.38 0 0 0-4.78-4.78ZM14.5 4.56v3.194c0 .38.282.693.648.743l.102.007 3.191-.001L14.5 4.56Z" fill="#80aae2"/></svg>
